X: 1
T: The Devil and the Dirk
C: J.S.Skinner
Z: John Chambers <jc@trillian.mit.edu>
N: The Harp and Claymore, p.84 (with variations by Gavin Greig).
N: The Caledonian Companion, Alastair J. Hardie, 1981, p.110.
N: SV p.3
N: SFT p.15
M: C|
L: 1/8
K: D
|: d | "D"~D2FD ADd2 | ADFD "A7"CE-EF | "D"~D2FD ADd2 | "A7"AFGE "D"FDD :|
[| c | "Bm"dcBd "A7"cBAc | "G"BAGB "D"AGFA | "Em"GFEG "D"FEDF | "E7"EB,ED "A7"CEAc |
     | "Bm"dcBd "A7"cBAc | "G"BAGB "D"AGFA | "A7"GEAG "D"FAdB | "A7"AFGE "D"FDD |]
